X: 408
T: Cahill's workshop
C:anon.
O:Ireland
B:Francis O'Neill: "The Dance Music of Ireland" (1907) no. 408
R:Single jig
Z:Transcribed by Frank Nordberg - http://www.musicaviva.com
F:http://www.musicaviva.com/abc/tunes/ireland/oneill-1001/oneill-1001-040
8.abc
m:Tn2 = (3n/o/n/ m/n/
M:6/8
L:1/8
K:Am
A3 AGE|(TG2E) E3|A3 Bcd|ecA A2B|A3 AGE|(TG2E) (G2E)|D2E G2A|[1 (TB2G) G2B
:|[2 (TB2A) A2c||
|:B2d d2B|(TG2E) E3|c2A Bcd|ecA A2c|B2d ({e}d2)B|(TG2E) (G2E)|D2E G2A|[1
(TB2G) G2c:|[2 (B2A) A2B||
W:
W:
W:  From Musica Viva - http://www.musicaviva.com
W:  the Internet center for free sheet music downloads.


